images_sukapura_svg/cmd/lc_thesaurus.svg

<svg viewBox="0 0 24 24" xmlns="http://www.w3.org/2000/svg" xmlns:xlink="http://www.w3.org/1999/xlink"><linearGradient id="a" gradientUnits="userSpaceOnUse" x1="-13.983051" x2="-13.983051" y1="17.016949" y2="-1.983051"><stop offset="0" stop-color="#0040dd"/><stop offset="1" stop-color="#0a84ff"/></linearGradient><g transform="translate(0 -1)"><path d="m0 4h24v20h-24z" fill="url(#a)"/><path d="m2 2v20h20v-20c-3.451031.323382-7.086976.1074319-10 2-2.7340796-1.5182377-6.3793541-1.7416196-10-2z" fill="#69696e"/><path d="m3 21c3.2266511-.06722 6.1454932-.47694 9 1 2.692359-1.679398 5.944826-1 9-1v-18c-5 0-8 1-9 2-1-1-4-2-9-2z" fill="#fff" fill-rule="evenodd"/><path d="m14 6 5-1v1l-5 1z" fill="#ff3b30"/><path d="m14 9 5-1v1l-5 1z" fill="#af52de"/><g fill="#98989d"><path d="m14 12 5-1v1l-5 1z"/><path d="m14 15 5-1v1l-5 1z"/><path d="m14 18 5-1v1l-5 1z"/><g transform="translate(-9)"><path d="m19 6-5-1v1l5 1z"/><path d="m19 9-5-1v1l5 1z"/><path d="m19 12-5-1v1l5 1z"/><path d="m19 15-5-1v1l5 1z"/><path d="m19 18-5-1v1l5 1z"/></g></g></g></svg>

<?xml version="1.0" encoding="UTF-8" standalone="no"?>
<svg
   xmlns:dc="http://purl.org/dc/elements/1.1/"
   xmlns:cc="http://creativecommons.org/ns#"
   xmlns:rdf="http://www.w3.org/1999/02/22-rdf-syntax-ns#"
   xmlns:svg="http://www.w3.org/2000/svg"
   xmlns="http://www.w3.org/2000/svg"
   xmlns:xlink="http://www.w3.org/1999/xlink"
   xmlns:sodipodi="http://sodipodi.sourceforge.net/DTD/sodipodi-0.dtd"
   xmlns:inkscape="http://www.inkscape.org/namespaces/inkscape"
   viewBox="0 0 24 24"
   version="1.1"
   id="svg12"
   sodipodi:docname="lc_thesaurus.svg"
   inkscape:version="0.92.3 (unknown)">
  <metadata
     id="metadata18">
    <rdf:RDF>
      <cc:Work
         rdf:about="">
        <dc:format>image/svg+xml</dc:format>
        <dc:type
           rdf:resource="http://purl.org/dc/dcmitype/StillImage" />
        <dc:title></dc:title>
      </cc:Work>
    </rdf:RDF>
  </metadata>
  <defs
     id="defs16">
    <clipPath
       clipPathUnits="userSpaceOnUse"
       id="clipPath841">
      <rect
         style="fill:#ffcc00;fill-opacity:1;stroke:#e4b500;stroke-opacity:1"
         id="rect843"
         width="44.296074"
         height="42.570194"
         x="-1277.682"
         y="-629.5105" />
    </clipPath>
    <linearGradient
       gradientTransform="translate(-26.983051,-6.9830508)"
       id="a"
       gradientUnits="userSpaceOnUse"
       x1="14"
       x2="13.79661"
       y1="22"
       y2="2.1355929">
      <stop
         offset="0"
         stop-color="#0040dd"
         id="stop2" />
      <stop
         offset="1"
         stop-color="#0a84ff"
         id="stop4" />
    </linearGradient>
    <linearGradient
       inkscape:collect="always"
       xlink:href="#a"
       id="linearGradient1530"
       x1="13"
       y1="24"
       x2="13"
       y2="5"
       gradientUnits="userSpaceOnUse" />
  </defs>
  <sodipodi:namedview
     pagecolor="#ffffff"
     bordercolor="#666666"
     borderopacity="1"
     objecttolerance="10"
     gridtolerance="10"
     guidetolerance="10"
     inkscape:pageopacity="0"
     inkscape:pageshadow="2"
     inkscape:window-width="1366"
     inkscape:window-height="706"
     id="namedview14"
     showgrid="true"
     showguides="false"
     inkscape:zoom="5.2083333"
     inkscape:cx="23.41595"
     inkscape:cy="7.5229621"
     inkscape:window-x="0"
     inkscape:window-y="0"
     inkscape:window-maximized="1"
     inkscape:current-layer="svg12">
    <inkscape:grid
       type="xygrid"
       id="grid845" />
  </sodipodi:namedview>
  <g
     id="g1582"
     transform="translate(0,-1)">
    <rect
       y="4"
       x="0"
       height="20"
       width="24"
       id="rect847"
       style="fill:url(#linearGradient1530);fill-opacity:1;stroke:none;stroke-opacity:1" />
    <path
       id="path2"
       d="M 2,2 V 22 H 22 V 2 C 18.548969,2.323382 14.913024,2.1074319 12,4 9.2659204,2.4817623 5.6206459,2.2583804 2,2 Z"
       inkscape:connector-curvature="0"
       style="fill:#69696e;fill-opacity:1" />
    <path
       id="path4"
       d="m 3,21 c 3.2266511,-0.06722 6.1454932,-0.47694 9,1 2.692359,-1.679398 5.944826,-1 9,-1 V 3 C 16,3 13,4 12,5 11,4 8,3 3,3 Z"
       inkscape:connector-curvature="0"
       style="fill:#ffffff;fill-rule:evenodd" />
    <path
       sodipodi:nodetypes="ccccc"
       inkscape:connector-curvature="0"
       id="rect1532"
       d="M 14,6 19,5 V 6 L 14,7 Z"
       style="fill:#ff3b30;fill-opacity:1;stroke:none;stroke-width:0.91287094;stroke-opacity:1" />
    <path
       style="fill:#af52de;fill-opacity:1;stroke:none;stroke-width:0.91287094;stroke-opacity:1"
       d="m 14,9 5,-1 v 1 l -5,1 z"
       id="path1543"
       inkscape:connector-curvature="0"
       sodipodi:nodetypes="ccccc" />
    <path
       sodipodi:nodetypes="ccccc"
       inkscape:connector-curvature="0"
       id="path1545"
       d="m 14,12 5,-1 v 1 l -5,1 z"
       style="fill:#98989d;fill-opacity:1;stroke:none;stroke-width:0.91287094;stroke-opacity:1" />
    <path
       style="fill:#98989d;fill-opacity:1;stroke:none;stroke-width:0.91287094;stroke-opacity:1"
       d="m 14,15 5,-1 v 1 l -5,1 z"
       id="path1547"
       inkscape:connector-curvature="0"
       sodipodi:nodetypes="ccccc" />
    <path
       sodipodi:nodetypes="ccccc"
       inkscape:connector-curvature="0"
       id="path1549"
       d="m 14,18 5,-1 v 1 l -5,1 z"
       style="fill:#98989d;fill-opacity:1;stroke:none;stroke-width:0.91287094;stroke-opacity:1" />
    <g
       transform="translate(-9)"
       id="g1566"
       style="fill:#98989d;fill-opacity:1">
      <path
         sodipodi:nodetypes="ccccc"
         inkscape:connector-curvature="0"
         id="path1551"
         d="M 19,6 14,5 v 1 l 5,1 z"
         style="fill:#98989d;fill-opacity:1;stroke:none;stroke-width:0.91287094;stroke-opacity:1" />
      <path
         style="fill:#98989d;fill-opacity:1;stroke:none;stroke-width:0.91287094;stroke-opacity:1"
         d="M 19,9 14,8 v 1 l 5,1 z"
         id="path1553"
         inkscape:connector-curvature="0"
         sodipodi:nodetypes="ccccc" />
      <path
         sodipodi:nodetypes="ccccc"
         inkscape:connector-curvature="0"
         id="path1555"
         d="m 19,12 -5,-1 v 1 l 5,1 z"
         style="fill:#98989d;fill-opacity:1;stroke:none;stroke-width:0.91287094;stroke-opacity:1" />
      <path
         style="fill:#98989d;fill-opacity:1;stroke:none;stroke-width:0.91287094;stroke-opacity:1"
         d="m 19,15 -5,-1 v 1 l 5,1 z"
         id="path1557"
         inkscape:connector-curvature="0"
         sodipodi:nodetypes="ccccc" />
      <path
         sodipodi:nodetypes="ccccc"
         inkscape:connector-curvature="0"
         id="path1559"
         d="m 19,18 -5,-1 v 1 l 5,1 z"
         style="fill:#98989d;fill-opacity:1;stroke:none;stroke-width:0.91287094;stroke-opacity:1" />
    </g>
  </g>
</svg>
